src/svg/uf2a1-braille.svg

<svg xmlns="http://www.w3.org/2000/svg" width="39" height="32"><path d="M3.429 21.143C1.858 21.143.572 22.429.572 24s1.286 2.857 2.857 2.857S6.286 25.571 6.286 24 5 21.143 3.429 21.143zm9.142 0C11 21.143 9.714 22.429 9.714 24s1.286 2.857 2.857 2.857 2.857-1.286 2.857-2.857-1.286-2.857-2.857-2.857zm0-9.143C11 12 9.714 13.286 9.714 14.857s1.286 2.857 2.857 2.857 2.857-1.286 2.857-2.857S14.142 12 12.571 12zm13.715 9.143c-1.571 0-2.857 1.286-2.857 2.857s1.286 2.857 2.857 2.857 2.857-1.286 2.857-2.857-1.286-2.857-2.857-2.857zm9.143 0c-1.571 0-2.857 1.286-2.857 2.857s1.286 2.857 2.857 2.857 2.857-1.286 2.857-2.857-1.286-2.857-2.857-2.857zM26.286 12c-1.571 0-2.857 1.286-2.857 2.857s1.286 2.857 2.857 2.857 2.857-1.286 2.857-2.857S27.857 12 26.286 12zm9.143 0c-1.571 0-2.857 1.286-2.857 2.857s1.286 2.857 2.857 2.857 2.857-1.286 2.857-2.857S37 12 35.429 12zm0-9.143c-1.571 0-2.857 1.286-2.857 2.857s1.286 2.857 2.857 2.857 2.857-1.286 2.857-2.857S37 2.857 35.429 2.857zM6.857 24a3.43 3.43 0 0 1-6.858 0 3.43 3.43 0 0 1 6.858 0zM16 24a3.43 3.43 0 0 1-6.858 0A3.43 3.43 0 0 1 16 24zm-9.143-9.143a3.43 3.43 0 0 1-6.858 0 3.43 3.43 0 0 1 6.858 0zm9.143 0a3.43 3.43 0 0 1-6.858 0 3.43 3.43 0 0 1 6.858 0zM6.857 5.714a3.43 3.43 0 0 1-6.858 0 3.43 3.43 0 0 1 6.858 0zM29.714 24a3.43 3.43 0 0 1-6.858 0 3.43 3.43 0 0 1 6.858 0zM16 5.714a3.43 3.43 0 0 1-6.858 0 3.43 3.43 0 0 1 6.858 0zM38.857 24a3.43 3.43 0 0 1-6.858 0 3.43 3.43 0 0 1 6.858 0zm-9.143-9.143a3.43 3.43 0 0 1-6.858 0 3.43 3.43 0 0 1 6.858 0zm9.143 0a3.43 3.43 0 0 1-6.858 0 3.43 3.43 0 0 1 6.858 0zm-9.143-9.143a3.43 3.43 0 0 1-6.858 0 3.43 3.43 0 0 1 6.858 0zm9.143 0a3.43 3.43 0 0 1-6.858 0 3.43 3.43 0 0 1 6.858 0z"/></svg>

<!-- Generated by IcoMoon.io -->
<svg version="1.1" xmlns="http://www.w3.org/2000/svg" width="39" height="32" viewBox="0 0 39 32">
<path d="M3.429 21.143c-1.571 0-2.857 1.286-2.857 2.857s1.286 2.857 2.857 2.857 2.857-1.286 2.857-2.857-1.286-2.857-2.857-2.857zM12.571 21.143c-1.571 0-2.857 1.286-2.857 2.857s1.286 2.857 2.857 2.857 2.857-1.286 2.857-2.857-1.286-2.857-2.857-2.857zM12.571 12c-1.571 0-2.857 1.286-2.857 2.857s1.286 2.857 2.857 2.857 2.857-1.286 2.857-2.857-1.286-2.857-2.857-2.857zM26.286 21.143c-1.571 0-2.857 1.286-2.857 2.857s1.286 2.857 2.857 2.857 2.857-1.286 2.857-2.857-1.286-2.857-2.857-2.857zM35.429 21.143c-1.571 0-2.857 1.286-2.857 2.857s1.286 2.857 2.857 2.857 2.857-1.286 2.857-2.857-1.286-2.857-2.857-2.857zM26.286 12c-1.571 0-2.857 1.286-2.857 2.857s1.286 2.857 2.857 2.857 2.857-1.286 2.857-2.857-1.286-2.857-2.857-2.857zM35.429 12c-1.571 0-2.857 1.286-2.857 2.857s1.286 2.857 2.857 2.857 2.857-1.286 2.857-2.857-1.286-2.857-2.857-2.857zM35.429 2.857c-1.571 0-2.857 1.286-2.857 2.857s1.286 2.857 2.857 2.857 2.857-1.286 2.857-2.857-1.286-2.857-2.857-2.857zM6.857 24c0 1.893-1.536 3.429-3.429 3.429s-3.429-1.536-3.429-3.429 1.536-3.429 3.429-3.429v0c1.893 0 3.429 1.536 3.429 3.429zM16 24c0 1.893-1.536 3.429-3.429 3.429s-3.429-1.536-3.429-3.429 1.536-3.429 3.429-3.429v0c1.893 0 3.429 1.536 3.429 3.429zM6.857 14.857c0 1.893-1.536 3.429-3.429 3.429s-3.429-1.536-3.429-3.429 1.536-3.429 3.429-3.429 3.429 1.536 3.429 3.429zM16 14.857c0 1.893-1.536 3.429-3.429 3.429s-3.429-1.536-3.429-3.429 1.536-3.429 3.429-3.429v0c1.893 0 3.429 1.536 3.429 3.429zM6.857 5.714c0 1.893-1.536 3.429-3.429 3.429s-3.429-1.536-3.429-3.429 1.536-3.429 3.429-3.429 3.429 1.536 3.429 3.429zM29.714 24c0 1.893-1.536 3.429-3.429 3.429s-3.429-1.536-3.429-3.429 1.536-3.429 3.429-3.429v0c1.893 0 3.429 1.536 3.429 3.429zM16 5.714c0 1.893-1.536 3.429-3.429 3.429s-3.429-1.536-3.429-3.429 1.536-3.429 3.429-3.429 3.429 1.536 3.429 3.429zM38.857 24c0 1.893-1.536 3.429-3.429 3.429s-3.429-1.536-3.429-3.429 1.536-3.429 3.429-3.429v0c1.893 0 3.429 1.536 3.429 3.429zM29.714 14.857c0 1.893-1.536 3.429-3.429 3.429s-3.429-1.536-3.429-3.429 1.536-3.429 3.429-3.429v0c1.893 0 3.429 1.536 3.429 3.429zM38.857 14.857c0 1.893-1.536 3.429-3.429 3.429s-3.429-1.536-3.429-3.429 1.536-3.429 3.429-3.429v0c1.893 0 3.429 1.536 3.429 3.429zM29.714 5.714c0 1.893-1.536 3.429-3.429 3.429s-3.429-1.536-3.429-3.429 1.536-3.429 3.429-3.429 3.429 1.536 3.429 3.429zM38.857 5.714c0 1.893-1.536 3.429-3.429 3.429s-3.429-1.536-3.429-3.429 1.536-3.429 3.429-3.429v0c1.893 0 3.429 1.536 3.429 3.429z"></path>
</svg>
